;FLAVOR:Marlin
;TIME:13317
;Filament used: 10.3366m
;Layer height: 0.28
;MINX:99.102
;MINY:72.709
;MINZ:0.28
;MAXX:177.102
;MAXY:160.722
;MAXZ:54.88
;TARGET_MACHINE.NAME:Creality Ender-3
;Generated with Cura_SteamEngine 5.10.0
M140 S60
M105
M190 S60
M104 S207
M105
M109 S207
; Ender 3 Custom Start G-code
G92 E0 ; Reset Extruder
G28 ; Home all axes
G29 ; Auto bed leveling
M500 ; Save bed leveling data to EEPROM
G1 Z2.0 F3000 ; Move Z Axis up little to prevent scratching of Heat Bed
G1 X0.1 Y20 Z0.3 F5000.0 ; Move to start position
G1 X0.1 Y200.0 Z0.3 F1500.0 E15 ; Draw the first line
G1 X0.4 Y200.0 Z0.3 F5000.0 ; Move to side a little
G1 X0.4 Y20 Z0.3 F1500.0 E30 ; Draw the second line
G92 E0 ; Reset Extruder
G1 Z2.0 F3000 ; Move Z Axis up little to prevent scratching of Heat Bed
G1 X5 Y20 Z0.3 F5000.0 ; Move over to prevent blob squish
M82 ;absolute extrusion mode
G92 E0
G92 E0
G1 F2700 E-6
;LAYER_COUNT:196
;LAYER:0
M107
M204 S500
M205 X8 Y8
G0 F6000 X101.158 Y76.649 Z0.28
;TYPE:SKIRT
G1 F2700 E0
G1 F600 X101.514 Y76.21 E0.02632
G1 X101.907 Y75.777 E0.05355
G1 X102.262 Y75.426 E0.07679
G1 X102.709 Y75.031 E0.10457
G1 X103.163 Y74.675 E0.13143
G1 X103.599 Y74.37 E0.15621
G1 X103.871 Y74.197 E0.17122
G1 X104.352 Y73.919 E0.19709
G1 X104.581 Y73.799 E0.20913
G1 X105.101 Y73.554 E0.23589
G1 X105.638 Y73.338 E0.26285
G1 X106.166 Y73.159 E0.28881
G1 X106.726 Y73.005 E0.31585
G1 X106.983 Y72.945 E0.32814
G1 X107.553 Y72.839 E0.35514
G1 X107.83 Y72.799 E0.36817
G1 X108.404 Y72.742 E0.39503
G1 X109.207 Y72.711 E0.43245
G1 X166.465 Y72.709 E3.09862
G1 X167.652 Y72.733 E3.1539
G1 X168.225 Y72.781 E3.18068
G1 X168.769 Y72.858 E3.20626
G1 X169.075 Y72.915 E3.22075
G1 X169.606 Y73.037 E3.24612
G1 X170.155 Y73.196 E3.27274
G1 X170.447 Y73.294 E3.28708
G1 X170.954 Y73.49 E3.31239
G1 X171.194 Y73.594 E3.32457
G1 X171.742 Y73.861 E3.35295
G1 X172.218 Y74.127 E3.37835
G1 X172.679 Y74.42 E3.40378
G1 X173.162 Y74.765 E3.43142
G1 X173.601 Y75.121 E3.45774
G1 X174.034 Y75.514 E3.48497
G1 X174.372 Y75.855 E3.50732
G1 X174.605 Y76.112 E3.52348
G1 X174.953 Y76.53 E3.5488
G1 X175.136 Y76.77 E3.56286
G1 X175.431 Y77.191 E3.58679
G1 X175.754 Y77.712 E3.61534
G1 X176.008 Y78.18 E3.64013
G1 X176.257 Y78.708 E3.66731
G1 X176.47 Y79.238 E3.69391
G1 X176.566 Y79.507 E3.70721
G1 X176.73 Y80.04 E3.73318
G1 X176.866 Y80.59 E3.75956
G1 X176.971 Y81.154 E3.78627
G1 X177.012 Y81.437 E3.79959
G1 X177.069 Y82.011 E3.82645
G1 X177.1 Y82.814 E3.86387
G1 X177.102 Y97.056 E4.52703
G1 X177.078 Y98.259 E4.58306
G1 X177.03 Y98.832 E4.60984
G1 X176.953 Y99.376 E4.63542
G1 X176.896 Y99.682 E4.64991
G1 X176.774 Y100.213 E4.67528
G1 X176.615 Y100.762 E4.7019
G1 X176.517 Y101.054 E4.71624
G1 X176.321 Y101.561 E4.74155
G1 X176.217 Y101.801 E4.75373
G1 X175.95 Y102.349 E4.78211
G1 X175.686 Y102.821 E4.8073
G1 X175.391 Y103.286 E4.83294
G1 X173.352 Y106.129 E4.99585
G1 X171.856 Y108.356 E5.12077
G1 X170.427 Y110.628 E5.24575
G1 X169.067 Y112.94 E5.37065
G1 X167.776 Y115.292 E5.49559
G1 X166.555 Y117.682 E5.62056
G1 X165.407 Y120.107 E5.74549
G1 X164.331 Y122.565 E5.87043
G1 X163.329 Y125.054 E5.99537
G1 X162.402 Y127.572 E6.12031
G1 X161.55 Y130.116 E6.24523
G1 X160.774 Y132.685 E6.3702
G1 X160.076 Y135.276 E6.49514
G1 X159.454 Y137.886 E6.62008
G1 X158.911 Y140.514 E6.74504
G1 X158.447 Y143.156 E6.86994
G1 X158.091 Y145.592 E6.98458
G1 X157.984 Y146.423 E7.02359
G1 X157.912 Y146.881 E7.04518
G1 X157.803 Y147.681 E7.08277
G1 X157.653 Y148.443 E7.11894
G1 X157.341 Y149.708 E7.17961
G1 X156.866 Y151.764 E7.27786
G1 X156.68 Y152.52 E7.31412
G1 X156.529 Y153.043 E7.33946
G1 X156.319 Y153.636 E7.36876
G1 X156.039 Y154.293 E7.40201
G1 X155.803 Y154.77 E7.42679
G1 X155.545 Y155.24 E7.45176
G1 X155.239 Y155.731 E7.4787
G1 X155.068 Y155.981 E7.4928
G1 X154.742 Y156.415 E7.51808
G1 X154.324 Y156.91 E7.54825
G1 X153.895 Y157.361 E7.57723
G1 X153.519 Y157.714 E7.60124
G1 X153.029 Y158.125 E7.63102
G1 X152.71 Y158.37 E7.64975
G1 X152.03 Y158.831 E7.68801
G1 X151.545 Y159.12 E7.7143
G1 X151.004 Y159.4 E7.74266
G1 X150.54 Y159.609 E7.76636
G1 X150.297 Y159.708 E7.77858
G1 X149.735 Y159.908 E7.80635
G1 X149.078 Y160.109 E7.83835
G1 X147.857 Y160.442 E7.89728
G1 X147.583 Y160.503 E7.91035
G1 X146.997 Y160.609 E7.93808
G1 X146.451 Y160.676 E7.96369
G1 X145.862 Y160.715 E7.99118
G1 X145.582 Y160.722 E8.00422
G1 X145.003 Y160.71 E8.03119
G1 X143.59 Y160.623 E8.09711
G1 X140.91 Y160.498 E8.22203
G1 X138.227 Y160.453 E8.34698
G1 X135.544 Y160.488 E8.47193
G1 X132.342 Y160.635 E8.62118
G1 X131.36 Y160.698 E8.667
G1 X130.735 Y160.713 E8.69611
G1 X130.095 Y160.688 E8.72594
G1 X129.811 Y160.668 E8.73919
G1 X129.228 Y160.602 E8.76651
G1 X128.654 Y160.503 E8.79364
G1 X128.111 Y160.379 E8.81957
G1 X127.254 Y160.145 E8.86094
G1 X126.505 Y159.918 E8.89738
G1 X125.936 Y159.719 E8.92545
G1 X125.64 Y159.599 E8.94032
G1 X125.142 Y159.373 E8.96579
G1 X124.627 Y159.103 E8.99286
G1 X124.335 Y158.933 E9.0086
G1 X123.978 Y158.709 E9.02822
G1 X123.415 Y158.315 E9.06022
G1 X123.162 Y158.121 E9.07506
G1 X122.723 Y157.752 E9.10177
G1 X122.479 Y157.529 E9.11716
G1 X122.084 Y157.135 E9.14314
G1 X121.696 Y156.704 E9.17014
G1 X121.335 Y156.253 E9.19704
G1 X121.024 Y155.82 E9.22187
G1 X120.709 Y155.332 E9.24891
G1 X120.426 Y154.842 E9.27526
G1 X120.186 Y154.365 E9.30012
G1 X120.075 Y154.119 E9.31269
G1 X119.859 Y153.586 E9.33947
G1 X119.676 Y153.052 E9.36576
G1 X119.504 Y152.441 E9.39531
G1 X119.255 Y151.39 E9.44561
G1 X119.079 Y150.601 E9.48325
G1 X118.663 Y148.925 E9.56366
G1 X118.528 Y148.336 E9.59179
G1 X118.44 Y147.879 E9.61347
G1 X118.33 Y147.212 E9.64494
G1 X118.091 Y145.413 E9.72945
G1 X117.693 Y142.759 E9.85441
G1 X117.216 Y140.119 E9.97933
G1 X116.661 Y137.494 E10.10426
G1 X116.028 Y134.886 E10.22923
G1 X115.317 Y132.299 E10.35416
G1 X114.529 Y129.734 E10.4791
G1 X113.666 Y127.194 E10.60402
G1 X112.727 Y124.68 E10.72898
G1 X111.714 Y122.196 E10.85389
G1 X110.626 Y119.742 E10.97889
G1 X109.467 Y117.323 E11.10379
G1 X108.235 Y114.939 E11.22874
G1 X106.934 Y112.592 E11.3537
G1 X105.562 Y110.286 E11.47864
G1 X104.123 Y108.022 E11.60356
G1 X102.617 Y105.801 E11.72851
G1 X101.799 Y104.683 E11.79301
G1 X101.808 Y104.677 E11.79352
G1 X100.901 Y103.416 E11.86585
G1 X100.59 Y102.94 E11.89232
G1 X100.312 Y102.459 E11.91819
G1 X100.192 Y102.23 E11.93023
G1 X99.947 Y101.71 E11.957
G1 X99.731 Y101.173 E11.98395
G1 X99.552 Y100.645 E12.00991
G1 X99.398 Y100.085 E12.03695
G1 X99.283 Y99.556 E12.06216
G1 X99.192 Y98.981 E12.08927
G1 X99.135 Y98.407 E12.11613
G1 X99.104 Y97.604 E12.15355
G1 X99.102 Y83.346 E12.81746
G1 X99.126 Y82.159 E12.87274
G1 X99.174 Y81.586 E12.89952
G1 X99.251 Y81.042 E12.9251
G1 X99.373 Y80.435 E12.95393
G1 X99.51 Y79.915 E12.97897
G1 X99.687 Y79.364 E13.00592
G1 X99.883 Y78.857 E13.03123
G1 X99.987 Y78.617 E13.04341
G1 X100.254 Y78.069 E13.07179
G1 X100.52 Y77.593 E13.09718
G1 X100.813 Y77.132 E13.12262
G1 X101.158 Y76.649 E13.15026
G0 F6000 X101.469 Y76.901
G1 F600 X101.825 Y76.462 E13.17658
G1 X102.203 Y76.046 E13.20275
G1 X102.527 Y75.726 E13.22395
G1 X102.965 Y75.339 E13.25117
G1 X103.405 Y74.994 E13.2772
G1 X103.814 Y74.708 E13.30044
G1 X104.086 Y74.535 E13.31545
G1 X104.642 Y74.213 E13.34537
G1 X105.265 Y73.919 E13.37745
G1 X105.773 Y73.715 E13.40294
G1 X106.279 Y73.543 E13.42782
G1 X106.817 Y73.395 E13.45381
G1 X107.074 Y73.335 E13.4661
G1 X107.61 Y73.235 E13.49148
G1 X107.88 Y73.196 E13.50419
G1 X108.427 Y73.142 E13.52978
G1 X109.222 Y73.111 E13.56683
G1 X166.457 Y73.109 E16.23193
G1 X167.627 Y73.133 E16.28642
G1 X168.188 Y73.18 E16.31264
G1 X168.709 Y73.253 E16.33713
G1 X168.985 Y73.305 E16.35021
G1 X169.516 Y73.427 E16.37558
G1 X170.036 Y73.578 E16.40079
G1 X170.309 Y73.669 E16.41419
G1 X170.922 Y73.907 E16.44481
G1 X171.567 Y74.221 E16.47822
G1 X172.003 Y74.465 E16.50148
G1 X172.464 Y74.757 E16.52689
G1 X172.91 Y75.076 E16.55242
G1 X173.349 Y75.432 E16.57874
G1 X173.75 Y75.796 E16.60396
G1 X174.088 Y76.137 E16.62632
G1 X174.309 Y76.381 E16.64165
G1 X174.635 Y76.773 E16.66539
G1 X174.808 Y77 E16.67868
G1 X175.103 Y77.421 E16.70261
G1 X175.402 Y77.903 E16.72903
G1 X175.652 Y78.363 E16.7534
G1 X175.895 Y78.879 E16.77996
G1 X176.093 Y79.372 E16.8047
G1 X176.189 Y79.641 E16.818
G1 X176.345 Y80.149 E16.84275
G1 X176.475 Y80.674 E16.86793
G1 X176.575 Y81.211 E16.89336
G1 X176.614 Y81.477 E16.90588
G1 X176.669 Y82.026 E16.93157
G1 X176.7 Y82.829 E16.96899
G1 X176.702 Y97.048 E17.63109
G1 X176.678 Y98.234 E17.68633
G1 X176.631 Y98.795 E17.71254
G1 X176.558 Y99.316 E17.73704
G1 X176.506 Y99.592 E17.75012
G1 X176.384 Y100.122 E17.77544
G1 X176.236 Y100.635 E17.8003
G1 X176.144 Y100.91 E17.8138
G1 X175.907 Y101.523 E17.84441
G1 X175.591 Y102.171 E17.87798
G1 X175.348 Y102.607 E17.90122
G1 X175.058 Y103.064 E17.92642
G1 X173.023 Y105.901 E18.089
G1 X171.521 Y108.138 E18.21446
G1 X170.085 Y110.42 E18.34001
G1 X168.719 Y112.742 E18.46545
G1 X167.422 Y115.105 E18.59097
G1 X166.196 Y117.505 E18.71646
G1 X165.043 Y119.941 E18.84195
G1 X163.962 Y122.41 E18.96746
G1 X162.956 Y124.91 E19.09294
G1 X162.025 Y127.439 E19.21843
G1 X161.169 Y129.995 E19.34394
G1 X160.389 Y132.575 E19.46945
G1 X159.688 Y135.178 E19.59497
G1 X159.063 Y137.799 E19.72044
G1 X158.518 Y140.439 E19.84596
G1 X158.052 Y143.092 E19.97139
G1 X157.695 Y145.538 E20.08649
G1 X157.587 Y146.372 E20.12565
G1 X157.516 Y146.823 E20.14691
G1 X157.408 Y147.618 E20.18427
G1 X157.265 Y148.347 E20.21886
G1 X156.952 Y149.615 E20.27967
G1 X156.476 Y151.674 E20.37808
G1 X156.296 Y152.409 E20.41331
G1 X156.152 Y152.909 E20.43754
G1 X155.946 Y153.491 E20.46629
G1 X155.677 Y154.123 E20.49827
G1 X155.446 Y154.589 E20.52249
G1 X155.197 Y155.042 E20.54656
G1 X154.909 Y155.505 E20.57195
G1 X154.748 Y155.741 E20.58526
G1 X154.436 Y156.157 E20.60947
G1 X154.027 Y156.641 E20.63897
G1 X153.614 Y157.076 E20.66691
G1 X153.245 Y157.422 E20.69046
G1 X152.785 Y157.808 E20.71842
G1 X152.471 Y158.049 E20.73685
G1 X151.825 Y158.487 E20.7732
G1 X151.342 Y158.775 E20.79938
G1 X150.835 Y159.037 E20.82595
G1 X150.163 Y159.331 E20.86011
G1 X149.601 Y159.531 E20.88789
G1 X148.973 Y159.723 E20.91846
G1 X147.752 Y160.056 E20.9774
G1 X147.512 Y160.109 E20.98884
G1 X146.931 Y160.214 E21.01633
G1 X146.41 Y160.278 E21.04077
G1 X145.851 Y160.315 E21.06686
G1 X145.58 Y160.322 E21.07948
G1 X145.012 Y160.31 E21.10594
G1 X143.612 Y160.224 E21.17125
G1 X140.923 Y160.098 E21.2966
G1 X138.228 Y160.053 E21.42211
G1 X135.532 Y160.088 E21.54766
G1 X132.32 Y160.236 E21.69738
G1 X131.35 Y160.298 E21.74264
G1 X130.741 Y160.313 E21.771
G1 X129.839 Y160.269 E21.81305
G1 X129.289 Y160.207 E21.83883
G1 X128.736 Y160.111 E21.86496
G1 X128.208 Y159.991 E21.89018
G1 X127.37 Y159.762 E21.93063
G1 X126.634 Y159.539 E21.96644
G1 X126.073 Y159.343 E21.99411
G1 X125.79 Y159.228 E22.00833
G1 X125.321 Y159.016 E22.0323
G1 X124.826 Y158.756 E22.05833
G1 X124.191 Y158.37 E22.09294
G1 X123.644 Y157.987 E22.12403
G1 X123.415 Y157.812 E22.13745
G1 X122.992 Y157.456 E22.16319
G1 X122.749 Y157.234 E22.17852
G1 X122.381 Y156.867 E22.20272
G1 X121.998 Y156.442 E22.22936
G1 X121.651 Y156.008 E22.25523
G1 X121.356 Y155.596 E22.27883
G1 X121.045 Y155.115 E22.3055
G1 X120.779 Y154.655 E22.33024
G1 X120.551 Y154.2 E22.35394
G1 X120.44 Y153.954 E22.36651
G1 X120.23 Y153.436 E22.39254
G1 X120.059 Y152.935 E22.41719
G1 X119.889 Y152.333 E22.44631
G1 X119.468 Y150.509 E22.53348
G1 X119.051 Y148.829 E22.61408
G1 X118.918 Y148.247 E22.64188
G1 X118.833 Y147.803 E22.66293
G1 X118.725 Y147.147 E22.69389
G1 X118.487 Y145.357 E22.77797
G1 X118.088 Y142.694 E22.90336
G1 X117.609 Y140.042 E23.02884
G1 X117.051 Y137.405 E23.15435
G1 X116.415 Y134.786 E23.27985
G1 X115.701 Y132.187 E23.40535
G1 X114.91 Y129.611 E23.53083
G1 X114.043 Y127.06 E23.65629
G1 X113.1 Y124.534 E23.78184
G1 X112.082 Y122.039 E23.90731
G1 X110.989 Y119.574 E24.03287
G1 X109.825 Y117.145 E24.15829
G1 X108.588 Y114.75 E24.28381
G1 X107.281 Y112.393 E24.4093
G1 X105.903 Y110.076 E24.53483
G1 X104.457 Y107.802 E24.66031
G1 X102.944 Y105.571 E24.78584
G1 X102.369 Y104.784 E24.83122
G1 X102.375 Y104.78 E24.83156
G1 X101.226 Y103.182 E24.9232
G1 X100.925 Y102.721 E24.94884
G1 X100.665 Y102.271 E24.97304
G1 X100.546 Y102.044 E24.98497
G1 X100.313 Y101.548 E25.01049
G1 X100.108 Y101.038 E25.03609
G1 X99.936 Y100.532 E25.06097
G1 X99.784 Y99.979 E25.08768
G1 X99.676 Y99.48 E25.11145
G1 X99.589 Y98.93 E25.13738
G1 X99.535 Y98.384 E25.16293
G1 X99.504 Y97.589 E25.19997
G1 X99.502 Y83.354 E25.86281
G1 X99.525 Y82.192 E25.91693
G1 X99.573 Y81.619 E25.94371
G1 X99.646 Y81.108 E25.96774
G1 X99.76 Y80.537 E25.99486
G1 X99.897 Y80.017 E26.0199
G1 X100.066 Y79.494 E26.04549
G1 X100.296 Y78.897 E26.07528
G1 X100.614 Y78.244 E26.1091
G1 X100.858 Y77.808 E26.13236
G1 X101.15 Y77.347 E26.15777
G1 X101.469 Y76.901 E26.18331
G0 F6000 X101.78 Y77.153
G1 F600 X102.136 Y76.714 E26.20963
G1 X102.484 Y76.331 E26.23372
G1 X102.8 Y76.019 E26.2544
G1 X103.221 Y75.647 E26.28056
G1 X103.647 Y75.313 E26.30577
G1 X104.029 Y75.046 E26.32747
G1 X104.301 Y74.873 E26.34248
G1 X104.826 Y74.569 E26.37073
G1 X105.436 Y74.281 E26.40214
G1 X105.902 Y74.094 E26.42552
G1 X106.398 Y73.926 E26.4499
G1 X106.908 Y73.785 E26.47454
G1 X107.165 Y73.725 E26.48683
G1 X107.667 Y73.631 E26.51061
G1 X107.932 Y73.593 E26.52308
G1 X108.448 Y73.542 E26.54722
G1 X109.238 Y73.511 E26.58404
G1 X166.449 Y73.509 E29.24802
G1 X167.602 Y73.533 E29.30172
G1 X168.151 Y73.579 E29.32737
G1 X168.645 Y73.648 E29.3506
G1 X168.895 Y73.695 E29.36244
G1 X169.42 Y73.816 E29.38753
G1 X169.924 Y73.962 E29.41197
G1 X170.164 Y74.042 E29.42374
G1 X170.844 Y74.314 E29.45785
G1 X171.392 Y74.581 E29.48623
G1 X171.788 Y74.803 E29.50737
G1 X172.262 Y75.104 E29.53352
G1 X172.662 Y75.39 E29.55641
G1 X173.097 Y75.743 E29.5825
G1 X173.466 Y76.078 E29.60571
G1 X173.804 Y76.419 E29.62806
G1 X174.001 Y76.637 E29.64175
G1 X174.327 Y77.029 E29.66549
G1 X174.48 Y77.23 E29.67725
G1 X174.775 Y77.651 E29.70119
G1 X175.062 Y78.114 E29.72655
G1 X175.29 Y78.533 E29.74876
G1 X175.529 Y79.041 E29.7749
G1 X175.716 Y79.506 E29.79824
G1 X175.812 Y79.775 E29.81154
G1 X175.957 Y80.245 E29.83444
G1 X176.084 Y80.758 E29.85905
G1 X176.179 Y81.269 E29.88326
G1 X176.218 Y81.535 E29.89577
G1 X176.269 Y82.049 E29.91983
G1 X176.3 Y82.844 E29.95687
G1 X176.302 Y97.04 E30.6179
G1 X176.279 Y98.201 E30.67197
G1 X176.232 Y98.758 E30.698
G1 X176.165 Y99.242 E30.72075
G1 X176.116 Y99.502 E30.73307
G1 X175.994 Y100.031 E30.75835
G1 X175.857 Y100.508 E30.78146
G1 X175.771 Y100.766 E30.79412
G1 X175.541 Y101.363 E30.82391
G1 X175.242 Y101.976 E30.85567
G1 X175.01 Y102.393 E30.87789
G1 X174.725 Y102.842 E30.90265
G1 X172.694 Y105.673 E31.06489
G1 X171.186 Y107.92 E31.1909
G1 X169.743 Y110.212 E31.31701
G1 X168.371 Y112.544 E31.443
G1 X167.068 Y114.918 E31.5691
G1 X165.837 Y117.328 E31.69511
G1 X164.679 Y119.775 E31.82117
G1 X163.593 Y122.255 E31.94724
G1 X162.583 Y124.766 E32.07326
G1 X161.648 Y127.306 E32.19929
G1 X160.788 Y129.874 E32.3254
G1 X160.004 Y132.465 E32.45145
G1 X159.3 Y135.08 E32.57755
G1 X158.672 Y137.712 E32.70355
G1 X158.125 Y140.364 E32.82963
G1 X157.657 Y143.029 E32.95563
G1 X157.299 Y145.483 E33.0711
G1 X157.19 Y146.321 E33.11045
G1 X157.12 Y146.765 E33.13138
G1 X157.015 Y147.541 E33.16785
G1 X156.872 Y148.27 E33.20244
G1 X156.563 Y149.522 E33.26249
G1 X156.087 Y151.579 E33.3608
G1 X155.907 Y152.314 E33.39604
G1 X155.771 Y152.786 E33.41891
G1 X155.575 Y153.341 E33.44632
G1 X155.311 Y153.96 E33.47765
G1 X155.095 Y154.396 E33.50031
G1 X154.847 Y154.846 E33.52423
G1 X154.569 Y155.294 E33.54878
G1 X154.428 Y155.501 E33.56045
G1 X154.13 Y155.899 E33.5836
G1 X153.722 Y156.382 E33.61304
G1 X153.34 Y156.784 E33.63886
G1 X152.971 Y157.13 E33.66242
G1 X152.541 Y157.491 E33.68856
G1 X152.232 Y157.728 E33.70669
G1 X151.62 Y158.143 E33.74112
G1 X151.139 Y158.43 E33.7672
G1 X150.666 Y158.674 E33.79199
G1 X150.029 Y158.954 E33.82439
G1 X149.484 Y159.148 E33.85132
G1 X148.856 Y159.34 E33.8819
G1 X147.662 Y159.666 E33.93954
G1 X146.865 Y159.819 E33.97733
G1 X146.369 Y159.88 E34.0006
G1 X145.84 Y159.915 E34.02528
G1 X145.578 Y159.922 E34.03749
G1 X145.021 Y159.91 E34.06343
